public/images/constellation-pinning-service.svg

<svg fill="none" height="282" viewBox="0 0 257 282" width="308" xmlns="http://www.w3.org/2000/svg"><circle cx="128.686" cy="153.951" fill="#f2f9fa" opacity=".1" r="127.889"/><g fill="#7fa9c1"><path d="m150.931 202.902c-1.162 1.616-3.345 1.962-4.962.926-1.617-1.162-1.963-3.344-.926-4.96 1.036-1.617 3.344-1.962 4.962-.926 1.617 1.161 1.962 3.343.926 4.96z"/><path d="m158.155 211.284c-.66.926-1.916 1.114-2.827.533-.926-.659-1.115-1.915-.534-2.825s1.916-1.115 2.827-.534c.926.659 1.115 1.915.534 2.826z"/><path d="m67.9895 183.093c-.6595.926-1.9158 1.115-2.8265.534-.9265-.659-1.1149-1.915-.5339-2.826.581-.91 1.9157-1.114 2.8265-.533.9264.659 1.1149 1.915.5339 2.825z"/><path d="m166.022 60.035c-.66.9261-1.916 1.1145-2.827.5337-.926-.6592-1.115-1.9149-.534-2.8253s1.916-1.1144 2.827-.5337c.926.6593 1.115 1.915.534 2.8253z"/><path d="m162.19 137.637c-.66.926-1.916 1.115-2.827.534-.926-.659-1.115-1.915-.534-2.826.581-.91 1.916-1.114 2.827-.533.926.659 1.115 1.915.534 2.825z"/><path d="m36.0659 256.034c-.6752.941-1.9472 1.145-2.8893.533-.9422-.675-1.1463-1.946-.5339-2.888s1.9471-1.146 2.8893-.534c.9422.675 1.1463 1.947.5339 2.889z"/><path d="m206.708 143.037c-.487.675-1.414.832-2.089.392-.675-.486-.832-1.413-.392-2.087.439-.675 1.413-.832 2.088-.393.675.487.832 1.413.393 2.088z"/><path d="m163.886 100.923c-.66.926-1.916 1.115-2.827.534-.926-.659-1.114-1.915-.533-2.8254s1.915-1.1145 2.826-.5337c.927.6592 1.115 1.9151.534 2.8251z"/><path d="m98.7202 134.089c-.4239.581-1.2091.707-1.8058.33-.581-.424-.7066-1.209-.3297-1.805.3768-.597 1.2091-.707 1.8058-.33.581.424.7066 1.209.3297 1.805z"/><path d="m111.738 247.778c-.424.58-1.209.706-1.806.329-.581-.423-.707-1.208-.33-1.805.377-.596 1.209-.706 1.806-.329.581.423.707 1.208.33 1.805z"/><path d="m226.258 115.835c-.55.769-1.602.942-2.371.439-.77-.549-.942-1.601-.44-2.37.503-.769 1.602-.942 2.371-.439.77.549.943 1.601.44 2.37z"/><path d="m134.993 23.6825c-.424.5808-1.209.7063-1.806.3296-.581-.4238-.706-1.2086-.329-1.8051.376-.5964 1.209-.7063 1.805-.3296.581.4238.707 1.2086.33 1.8051z"/><path d="m181.379 163.143 4.789-.69-.816-4.772 2.999 3.814 3.674-3.045-1.743 4.427 4.476 1.663-4.79.691.817 4.772-2.999-3.814-3.659 3.045 1.79-4.442z"/><path d="m34.1504 172.608 4.805-.707-.8322-4.755 3.0149 3.814 3.6588-3.045-1.743 4.426 4.4752 1.664-4.7893.69.8322 4.756-3.0149-3.798-3.6587 3.029 1.8058-4.442z"/></g><path d="m180.736 135.236 39.586-5.336-71.636-70.2096-4.475 38.8483-47.0453 47.9523-39.571 5.336 71.6203 70.21 4.475-38.848z" stroke="#fff" stroke-miterlimit="10"/><path d="m132.214 128.77-111.5368 114.253 39.3512-1.539 43.6536-44.483" stroke="#fff" stroke-miterlimit="10"/><path d="m147.995 61.6839 7.145-48.7996" stroke="#fff" stroke-miterlimit="10"/><path d="m128.759 221.409-3.565 39.931" stroke="#fff" stroke-miterlimit="10"/><path d="m17.348 247.292c-2.1042-1.428-2.5439-4.301-1.0992-6.404 1.4289-2.103 4.3025-2.543 6.4067-1.099 2.1042 1.429 2.5438 4.301 1.0992 6.404-1.5389 1.994-4.4125 2.543-6.4067 1.099z" fill="#fff"/><path d="m131.178 187.443c-2.105-1.429-2.544-4.301-1.1-6.404 1.429-2.104 4.303-2.543 6.407-1.099 2.104 1.428 2.544 4.301 1.099 6.404-1.539 1.993-4.412 2.543-6.406 1.099z" fill="#fff"/><path d="m146.174 65.5768c-2.355-1.601-2.842-4.8188-1.24-7.1575 1.601-2.3545 4.82-2.841 7.16-1.24 2.355 1.601 2.842 4.8187 1.241 7.1575-1.728 2.2288-4.947 2.841-7.161 1.24z" fill="#fff"/><path d="m216.773 134.28c-2.826-1.931-3.423-5.792-1.491-8.618 1.931-2.825 5.794-3.421 8.62-1.491 2.827 1.931 3.424 5.792 1.492 8.618-2.088 2.668-5.951 3.421-8.621 1.491z" fill="#fff"/><path d="m94.4014 149.191c-1.8843-1.288-2.2926-3.877-.9892-5.761 1.2876-1.884 3.8785-2.292 5.7629-.989 1.8839 1.287 2.2929 3.877.9889 5.761-1.3972 1.789-3.9724 2.291-5.7626.989z" fill="#fff"/><path d="m177.862 138.705c-1.743-1.193-2.12-3.578-.926-5.321 1.193-1.742 3.58-2.119 5.323-.926s2.12 3.579.926 5.321c-1.287 1.648-3.674 2.119-5.323.926z" fill="#fff"/><path d="m134.601 222.304c0 2.527-2.088 4.614-4.616 4.614s-4.617-2.087-4.617-4.614 2.089-4.615 4.617-4.615 4.616 2.088 4.616 4.615z" fill="#fff"/><path d="m87.0214 180.112c-1.0678 1.491-3.0934 1.821-4.6009.848-1.4918-1.068-1.8215-3.092-.8479-4.599.9735-1.507 3.0934-1.821 4.6009-.848 1.4917 1.067 1.8215 3.092.8479 4.599z" fill="#fff"/><path d="m108.409 197.347c0 2.119-1.743 3.861-3.863 3.861s-3.863-1.742-3.863-3.861 1.743-3.861 3.863-3.861 3.863 1.742 3.863 3.861z" fill="#fff"/><path d="m60.4838 153.146c-.8794 1.224-2.5282 1.476-3.753.691-1.2248-.879-1.476-2.527-.6909-3.752.7851-1.224 2.5282-1.475 3.753-.69 1.2248.879 1.476 2.527.6909 3.751z" fill="#fff"/><path d="m131.68 131.046c-2.355-1.601-2.842-4.819-1.24-7.157 1.602-2.355 4.821-2.842 7.16-1.24 2.356 1.601 2.843 4.818 1.241 7.157-1.727 2.229-4.946 2.841-7.161 1.24z" fill="#fff"/><path d="m146.127 99.8888c-.989 1.3812-2.858 1.6792-4.24.7852-1.382-.9893-1.68-2.8571-.785-4.2384.895-1.3812 2.858-1.6795 4.24-.7848 1.382.9889 1.68 2.8567.785 4.238z" fill="#fff"/><path d="m140.16 12.8216 10.647-1.5539-1.838-10.563598 6.674 8.460278 8.134-6.74939-3.847 9.82581 9.94 3.673-10.647 1.5539 1.838 10.5636-6.674-8.4603-8.15 6.7494 4.004-9.8573z" fill="#ffa135"/><path d="m110.042 262.753 10.647-1.554-1.837-10.564 6.673 8.461 8.15-6.75-3.863 9.826 9.94 3.673-10.646 1.554 1.837 10.563-6.674-8.46-8.134 6.75 4.004-9.858z" fill="#ffa135"/><path d="m44.876 238.957 10.4109-2.684-2.9678-10.312 7.553 7.691 7.3646-7.581-2.7794 10.187 10.2696 2.59-10.4109 2.684 2.9678 10.312-7.553-7.707-7.3646 7.581 2.9207-10.233z" fill="#ffa135"/></svg>

<svg width="308" height="282" viewBox="0 0 257 282" fill="none" xmlns="http://www.w3.org/2000/svg">
<circle opacity="0.1" cx="128.686" cy="153.951" r="127.889" fill="#F2F9FA"/>
<path d="M150.931 202.902C149.769 204.518 147.586 204.864 145.969 203.828C144.352 202.666 144.006 200.484 145.043 198.868C146.079 197.251 148.387 196.906 150.005 197.942C151.622 199.103 151.967 201.285 150.931 202.902Z" fill="#7FA9C1"/>
<path d="M158.155 211.284C157.495 212.21 156.239 212.398 155.328 211.817C154.402 211.158 154.213 209.902 154.794 208.992C155.375 208.082 156.71 207.877 157.621 208.458C158.547 209.117 158.736 210.373 158.155 211.284Z" fill="#7FA9C1"/>
<path d="M67.9895 183.093C67.33 184.019 66.0737 184.208 65.163 183.627C64.2365 182.968 64.0481 181.712 64.6291 180.801C65.2101 179.891 66.5448 179.687 67.4556 180.268C68.382 180.927 68.5705 182.183 67.9895 183.093Z" fill="#7FA9C1"/>
<path d="M166.022 60.035C165.362 60.9611 164.106 61.1495 163.195 60.5687C162.269 59.9095 162.08 58.6538 162.661 57.7434C163.242 56.833 164.577 56.629 165.488 57.2097C166.414 57.869 166.603 59.1247 166.022 60.035Z" fill="#7FA9C1"/>
<path d="M162.19 137.637C161.53 138.563 160.274 138.752 159.363 138.171C158.437 137.512 158.248 136.256 158.829 135.345C159.41 134.435 160.745 134.231 161.656 134.812C162.582 135.471 162.771 136.727 162.19 137.637Z" fill="#7FA9C1"/>
<path d="M36.0659 256.034C35.3907 256.975 34.1187 257.179 33.1766 256.567C32.2344 255.892 32.0303 254.621 32.6427 253.679C33.2551 252.737 34.5898 252.533 35.532 253.145C36.4742 253.82 36.6783 255.092 36.0659 256.034Z" fill="#7FA9C1"/>
<path d="M206.708 143.037C206.221 143.712 205.294 143.869 204.619 143.429C203.944 142.943 203.787 142.016 204.227 141.342C204.666 140.667 205.64 140.51 206.315 140.949C206.99 141.436 207.147 142.362 206.708 143.037Z" fill="#7FA9C1"/>
<path d="M163.886 100.923C163.226 101.849 161.97 102.038 161.059 101.457C160.133 100.798 159.945 99.542 160.526 98.6316C161.107 97.7212 162.441 97.5171 163.352 98.0979C164.279 98.7571 164.467 100.013 163.886 100.923Z" fill="#7FA9C1"/>
<path d="M98.7202 134.089C98.2963 134.67 97.5111 134.796 96.9144 134.419C96.3334 133.995 96.2078 133.21 96.5847 132.614C96.9615 132.017 97.7938 131.907 98.3905 132.284C98.9715 132.708 99.0971 133.493 98.7202 134.089Z" fill="#7FA9C1"/>
<path d="M111.738 247.778C111.314 248.358 110.529 248.484 109.932 248.107C109.351 247.684 109.225 246.899 109.602 246.302C109.979 245.706 110.811 245.596 111.408 245.973C111.989 246.396 112.115 247.181 111.738 247.778Z" fill="#7FA9C1"/>
<path d="M226.258 115.835C225.708 116.604 224.656 116.777 223.887 116.274C223.117 115.725 222.945 114.673 223.447 113.904C223.95 113.135 225.049 112.962 225.818 113.465C226.588 114.014 226.761 115.066 226.258 115.835Z" fill="#7FA9C1"/>
<path d="M134.993 23.6825C134.569 24.2633 133.784 24.3888 133.187 24.0121C132.606 23.5883 132.481 22.8035 132.858 22.207C133.234 21.6106 134.067 21.5007 134.663 21.8774C135.244 22.3012 135.37 23.086 134.993 23.6825Z" fill="#7FA9C1"/>
<path d="M181.379 163.143L186.168 162.453L185.352 157.681L188.351 161.495L192.025 158.45L190.282 162.877L194.758 164.54L189.968 165.231L190.785 170.003L187.786 166.189L184.127 169.234L185.917 164.792L181.379 163.143Z" fill="#7FA9C1"/>
<path d="M34.1504 172.608L38.9554 171.901L38.1232 167.146L41.1381 170.96L44.7969 167.915L43.0539 172.341L47.5291 174.005L42.7398 174.695L43.572 179.451L40.5571 175.653L36.8984 178.682L38.7042 174.24L34.1504 172.608Z" fill="#7FA9C1"/>
<path d="M180.736 135.236L220.322 129.9L148.686 59.6904L144.211 98.5387L97.1657 146.491L57.5947 151.827L129.215 222.037L133.69 183.189L180.736 135.236Z" stroke="white" stroke-miterlimit="10"/>
<path d="M132.214 128.77L20.6772 243.023L60.0284 241.484L103.682 197.001" stroke="white" stroke-miterlimit="10"/>
<path d="M147.995 61.6839L155.14 12.8843" stroke="white" stroke-miterlimit="10"/>
<path d="M128.759 221.409L125.194 261.34" stroke="white" stroke-miterlimit="10"/>
<path d="M17.348 247.292C15.2438 245.864 14.8041 242.991 16.2488 240.888C17.6777 238.785 20.5513 238.345 22.6555 239.789C24.7597 241.218 25.1993 244.09 23.7547 246.193C22.2158 248.187 19.3422 248.736 17.348 247.292Z" fill="white"/>
<path d="M131.178 187.443C129.073 186.014 128.634 183.142 130.078 181.039C131.507 178.935 134.381 178.496 136.485 179.94C138.589 181.368 139.029 184.241 137.584 186.344C136.045 188.337 133.172 188.887 131.178 187.443Z" fill="white"/>
<path d="M146.174 65.5768C143.819 63.9758 143.332 60.758 144.934 58.4193C146.535 56.0648 149.754 55.5783 152.094 57.1793C154.449 58.7803 154.936 61.998 153.335 64.3368C151.607 66.5656 148.388 67.1778 146.174 65.5768Z" fill="white"/>
<path d="M216.773 134.28C213.947 132.349 213.35 128.488 215.282 125.662C217.213 122.837 221.076 122.241 223.902 124.171C226.729 126.102 227.326 129.963 225.394 132.789C223.306 135.457 219.443 136.21 216.773 134.28Z" fill="white"/>
<path d="M94.4014 149.191C92.5171 147.903 92.1088 145.314 93.4122 143.43C94.6998 141.546 97.2907 141.138 99.1751 142.441C101.059 143.728 101.468 146.318 100.164 148.202C98.7668 149.991 96.1916 150.493 94.4014 149.191Z" fill="white"/>
<path d="M177.862 138.705C176.119 137.512 175.742 135.127 176.936 133.384C178.129 131.642 180.516 131.265 182.259 132.458C184.002 133.651 184.379 136.037 183.185 137.779C181.898 139.427 179.511 139.898 177.862 138.705Z" fill="white"/>
<path d="M134.601 222.304C134.601 224.831 132.513 226.918 129.985 226.918C127.457 226.918 125.368 224.831 125.368 222.304C125.368 219.777 127.457 217.689 129.985 217.689C132.513 217.689 134.601 219.777 134.601 222.304Z" fill="white"/>
<path d="M87.0214 180.112C85.9536 181.603 83.928 181.933 82.4205 180.96C80.9287 179.892 80.599 177.868 81.5726 176.361C82.5461 174.854 84.666 174.54 86.1735 175.513C87.6652 176.58 87.995 178.605 87.0214 180.112Z" fill="white"/>
<path d="M108.409 197.347C108.409 199.466 106.666 201.208 104.546 201.208C102.426 201.208 100.683 199.466 100.683 197.347C100.683 195.228 102.426 193.486 104.546 193.486C106.666 193.486 108.409 195.228 108.409 197.347Z" fill="white"/>
<path d="M60.4838 153.146C59.6044 154.37 57.9556 154.622 56.7308 153.837C55.506 152.958 55.2548 151.31 56.0399 150.085C56.825 148.861 58.5681 148.61 59.7929 149.395C61.0177 150.274 61.2689 151.922 60.4838 153.146Z" fill="white"/>
<path d="M131.68 131.046C129.325 129.445 128.838 126.227 130.44 123.889C132.042 121.534 135.261 121.047 137.6 122.649C139.956 124.25 140.443 127.467 138.841 129.806C137.114 132.035 133.895 132.647 131.68 131.046Z" fill="white"/>
<path d="M146.127 99.8888C145.138 101.27 143.269 101.568 141.887 100.674C140.505 99.6847 140.207 97.8169 141.102 96.4356C141.997 95.0544 143.96 94.7561 145.342 95.6508C146.724 96.6397 147.022 98.5075 146.127 99.8888Z" fill="white"/>
<path d="M140.16 12.8216L150.807 11.2677L148.969 0.704102L155.643 9.16438L163.777 2.41499L159.93 12.2408L169.87 15.9138L159.223 17.4677L161.061 28.0313L154.387 19.571L146.237 26.3204L150.241 16.4631L140.16 12.8216Z" fill="#FFA135"/>
<path d="M110.042 262.753L120.689 261.199L118.852 250.635L125.525 259.096L133.675 252.346L129.812 262.172L139.752 265.845L129.106 267.399L130.943 277.962L124.269 269.502L116.135 276.252L120.139 266.394L110.042 262.753Z" fill="#FFA135"/>
<path d="M44.876 238.957L55.2869 236.273L52.3191 225.961L59.8721 233.652L67.2367 226.071L64.4573 236.258L74.7269 238.848L64.316 241.532L67.2838 251.844L59.7308 244.137L52.3662 251.718L55.2869 241.485L44.876 238.957Z" fill="#FFA135"/>
</svg>
